X:1
T:Midian, 11.11.11.11
T:Midian, 11.11.11.11
T:Edward John Hopkins, 1874
T:Public Domain Courtesy of the Cyber Hymnal™
C:Edward John Hopkins, 1874
Z:Public Domain
Z:Courtesy of the Cyber Hymnal™
%%score ( 1 2 ) ( 3 4 )
L:1/8
Q:1/4=110
M:4/4
K:F
V:1 treble 
V:2 treble 
V:3 bass 
V:4 bass 
V:1
 [A,D]2 [A,D]2 [DF]2 [DG]2 | (A3 B) [^CA]4 | [DF]2 [FA]2 [Ad]2 [Gd]2 | [E^c]8 | %4
 [Dd]2 [D=c]2 [FB]2 [Cc]2 | [CA]4 [CA]4 | [FA]2 [EG]2 [DF]2 [DE]2 | ([DF]4 [^CE]4) | %8
 [EA]2 [EA]2 [Dd]2 A2 | [Gd]4 [Gc]4 | [Ge]2 [Fd]2 [Gc]2 [EB]2 | A8 | [Dd]2 [DA]2 [DB]2 [DG]2 | %13
 [Dd]4 [DB]4 | [^DB]2 [DA]2 [EG]2 [CE]2 | D8 |] %16
V:2
 x8 | D4 x4 | x8 | x8 | x8 | x8 | x8 | x8 | x6 A2 | x8 | x8 | A8 | x8 | x8 | x8 | D8 |] %16
V:3
 [D,F,]2 [D,F,]2 [B,,F,]2 [B,,D,]2 | [A,,E,]4 [A,,E,]4 | D,2 [C,D,]2 [B,,F,]2 [B,,G,]2 | [A,,G,]8 | %4
 [B,,F,]2 [B,,F,]2 [D,F,]2 [E,G,]2 | A,4 [F,A,]4 | [B,,D,]2 [B,,D,]2 [B,,F,]2 [B,,G,]2 | [A,,A,]8 | %8
 C2 z G, [F,A,]2 [F,D]2 | [E,A,]4 [E,A,]4 | [C,A,]2 [D,A,]2 [E,A,]2 [G,C]2 | [F,D]8 | %12
 [F,C]2 [D,C]2 [G,B,]2 [G,B,]2 | ([F,A,]2 [D,F,]2) G,4 | [B,,F,]2 [B,,B,]2 [E,B,]2 [A,,G,]2 | %15
 [D,F,]8 |] %16
V:4
 x8 | x8 | D,2 x6 | x8 | x8 | (F,3 G,) x4 | x8 | x8 | A,3 C2 x3 | x8 | x8 | x8 | x8 | x4 G,4 | x8 | %15
 x8 |] %16

